X:1149
T:Norsk Dans ur Sven Donats notbok
T:(MA5-9)
S:Efter Sven Donat
R:Polska
O:Småland
N:[[http://www.smus.se/earkiv/fmk/browsevol.php?lang=sw&katalogid=Ma+5&bildnr=00011|MA5, låt 9, sida 11]]
B:Sven Donats notbok
Z:Jonas Brunskog
M:3/4
L:1/8
K:Gm
|:g2 gf af|d2 dc d2| g2 gf af|d2 dc d2|
B2 BA Bd|BG AF DF|[GG,]2 [GG,]2 [GG,]2|[GG,]2 [GG,]2 [GG,]2:|
|:B2 BA Bd|BG AF DC|D2 D2 D2|D2 D2 D2|
B2 BA Bd|BG AF DF|[GG,]2 [GG,]2 [GG,]2|[GG,]2 [GG,]2 [GG,]2:|
(:musicend:)

(:music:)
